X:1
T:Fading, The
L:1/8
M:6/8
I:linebreak $
K:F
V:1 treble 
V:1
 C | F2 C F2 F | A>BA G2 E | F2 F c2 c | d>ef e2 e | fed cBA | GAB A2 A | (A3 A)GF | G3 C2 C |$ %9
 FGA AGF | Ac z z2 || %11
